packages/core/src/svgs/tokens/mono/NPM.svg

<svg width="24" height="24" viewBox="0 0 24 24" fill="none" xmlns="http://www.w3.org/2000/svg">
<path fill-rule="evenodd" clip-rule="evenodd" d="M12 22C14.6522 22 17.1957 20.9464 19.071 19.071C20.9464 17.1957 22 14.6522 22 12C22 9.34785 20.9464 6.80429 19.071 4.92892C17.1957 3.05357 14.6522 2 12 2C9.34785 2 6.80429 3.05357 4.92892 4.92892C3.05357 6.80429 2 9.34785 2 12C2 14.6522 3.05357 17.1957 4.92892 19.071C6.80429 20.9464 9.34785 22 12 22ZM12 21.6C14.5461 21.6 16.9879 20.5886 18.7882 18.7882C20.5886 16.9879 21.6 14.5461 21.6 12C21.6 9.45395 20.5886 7.01212 18.7882 5.21176C16.9879 3.41142 14.5461 2.39999 12 2.39999C9.45395 2.39999 7.01212 3.41142 5.21176 5.21176C3.41142 7.01212 2.39999 9.45395 2.39999 12C2.39999 14.5461 3.41142 16.9879 5.21176 18.7882C7.01212 20.5886 9.45395 21.6 12 21.6Z" fill="white"/>
<path d="M10.9175 5.78809L11.9469 4.3822C11.9822 4.34102 12.0116 4.34102 12.047 4.3822L13.0587 5.79396C12.4469 5.76455 12.2881 6.49985 12.8705 6.59984C13.3881 6.68219 13.894 6.81161 14.3881 6.99984C14.6352 7.09396 14.9587 6.92338 14.8881 6.61749C14.8411 6.41161 14.6939 6.26455 14.4469 6.18808C14.3645 6.15868 14.3645 6.13514 14.4469 6.11161L16.0468 5.71161C16.1175 5.68808 16.1351 5.71161 16.0998 5.77631L14.9646 7.80573C14.9351 7.85867 14.8939 7.87044 14.8411 7.85867C12.9704 7.29397 11.0763 7.29984 9.16456 7.87631C9.1175 7.89396 9.07632 7.87631 9.0528 7.82926L7.89985 5.77044C7.86455 5.71161 7.8822 5.69396 7.94103 5.71161L9.42334 6.0822C9.57048 6.1175 9.58215 6.17044 9.44105 6.2469C9.1822 6.38808 8.93514 6.57631 9.17044 6.90573C9.21669 6.96777 9.28211 7.01288 9.3565 7.03414C9.43089 7.05539 9.51022 7.05161 9.58215 7.02338C10.094 6.81161 10.6175 6.67043 11.1528 6.59984C11.7292 6.52338 11.5233 5.73514 10.9175 5.78809ZM7.61162 10.1881L7.49396 10.2469C7.46644 10.2681 7.43412 10.2823 7.39985 10.288C7.32926 10.288 7.30573 10.2646 7.32338 10.2057C7.4822 9.66449 7.8822 9.19396 8.2175 8.73514C8.32338 8.60572 8.45279 8.50572 8.62927 8.44691C9.49403 8.14691 10.2999 7.96455 11.0587 7.91161C11.0822 7.91161 11.0999 7.93514 11.0881 7.95279C10.9939 8.14102 10.8351 8.27631 10.6293 8.36455C9.98224 8.61161 9.42924 8.71749 9.13515 9.42334C8.8822 10.0116 8.68808 10.9705 8.05867 11.2587C7.60573 11.4646 7.50573 12.0411 7.44691 12.4763C7.43515 12.5939 7.41161 12.5939 7.38809 12.4763C7.28808 12.0645 7.27045 11.6646 7.32926 11.2763C7.37632 10.9116 7.59397 10.6116 7.69397 10.2587C7.7175 10.1822 7.69397 10.1586 7.61162 10.1881Z" fill="white"/>
<path d="M12.4535 11.6353C12.4535 11.8881 12.5006 11.894 12.6005 11.6588C12.6594 11.5235 12.6947 11.3883 12.7182 11.247C12.7182 11.2177 12.73 11.1881 12.7593 11.1706C12.783 11.147 12.8182 11.1412 12.8476 11.1353C13.0241 11.1353 13.2006 11.147 13.3829 11.1765C13.824 11.2529 14.2064 11.1765 14.5299 10.9411C14.5888 10.9058 14.5888 10.8705 14.5299 10.8294C14.0829 10.4881 13.4123 10.6706 12.8888 10.7823C12.7946 10.8 12.783 10.7823 12.8535 10.7176C13.2653 10.347 13.7947 10.2058 14.4182 10.2882L14.5829 10.2941C14.6946 10.2941 14.7711 10.3411 14.8065 10.4353C14.93 10.7588 15.1005 11.394 15.4947 11.5118C15.53 11.5235 15.5418 11.5587 15.5182 11.5823C15.1653 12.0059 14.8711 12.4646 14.6594 12.9705C14.5888 13.1352 14.3652 13.2117 14.1889 13.147L13.2241 12.7588C13.1711 12.7353 13.1417 12.7 13.1358 12.6588C13.1203 12.5865 13.089 12.5184 13.0443 12.4594C12.9995 12.4005 12.9424 12.3521 12.877 12.3176C12.8501 12.3007 12.8196 12.2904 12.7879 12.2874C12.7563 12.2843 12.7243 12.2887 12.6947 12.2999C12.6755 12.306 12.6578 12.316 12.6427 12.329C12.6274 12.3422 12.6151 12.3584 12.6064 12.3765C12.5712 12.4646 12.6064 12.4941 12.7006 12.4764C12.7771 12.4589 12.8476 12.5 12.9065 12.5999C12.9359 12.6588 12.93 12.7176 12.8829 12.7647C12.8678 12.7798 12.8498 12.7917 12.83 12.7999L12.177 13.0588C12.0932 13.0942 12.0001 13.1004 11.9123 13.0765C11.6492 13.0014 11.3932 12.903 11.1476 12.7824C11.0124 12.7117 11.0358 12.5176 11.1887 12.4882C11.2349 12.4759 11.283 12.4738 11.33 12.4823C11.4005 12.4941 11.4064 12.4234 11.4005 12.3823C11.3889 12.3294 11.3534 12.2999 11.3006 12.2941C11.0006 12.2471 10.9123 12.4529 10.8477 12.6588C10.8396 12.6835 10.8258 12.706 10.8074 12.7244C10.7891 12.7428 10.7665 12.7567 10.7417 12.7647L9.83582 13.1293C9.58876 13.2294 9.41815 13.1705 9.31823 12.953C9.08292 12.4589 8.81232 12.0059 8.4888 11.5764C8.45939 11.5412 8.46527 11.5176 8.51821 11.4941C8.94174 11.3412 9.04762 10.7411 9.20645 10.3882C9.22409 10.3471 9.26525 10.3177 9.31823 10.3118C10.0064 10.2058 10.5535 10.2941 10.9535 10.5705C11.2299 10.7647 11.2005 10.8176 10.8536 10.7352C10.4064 10.6294 9.85352 10.5352 9.45356 10.8176C9.44135 10.825 9.43119 10.8353 9.42419 10.8476C9.41719 10.86 9.41362 10.874 9.41362 10.8882C9.41362 10.9024 9.41719 10.9164 9.42419 10.9287C9.43119 10.9411 9.44135 10.9515 9.45356 10.9588C9.86533 11.2118 10.3594 11.2647 10.9359 11.1235C11.1123 11.0823 11.2299 11.1412 11.2829 11.3L11.4182 11.7941C11.4358 11.8529 11.5359 11.8824 11.5359 11.8058L11.5182 10.4588C11.5182 10.4058 11.4888 10.3705 11.4358 10.3411C10.8234 10.0838 10.1779 9.91346 9.51821 9.83523C9.45933 9.82933 9.44766 9.79995 9.46523 9.75287C9.70062 9.24704 10.0417 8.98233 10.483 8.95291C11.1182 8.91761 11.4417 8.41762 11.6653 7.95292C11.6888 7.90585 11.724 7.88821 11.7829 7.88821L12.1829 7.88232C12.2124 7.88232 12.2418 7.88821 12.2652 7.90585C12.2888 7.91761 12.3064 7.93526 12.3241 7.96468C12.53 8.39997 12.9065 8.94702 13.5064 8.95291C13.9887 8.9588 14.3418 9.39409 14.5358 9.76468C14.5594 9.79995 14.5417 9.82356 14.5006 9.82356C13.824 9.91168 13.1711 10.0882 12.5359 10.3646C12.4888 10.3823 12.4652 10.4176 12.4594 10.4647V11.6353H12.4535Z" fill="white"/>
<path d="M16.2354 10.2235C16.2233 10.257 16.2186 10.2928 16.2216 10.3284C16.2246 10.3639 16.2354 10.3984 16.2529 10.4294C16.6294 11.0764 16.7236 11.7529 16.5177 12.4705C16.4765 12.6118 16.453 12.6118 16.4412 12.4589C16.4119 12.1058 16.3236 11.8 16.1883 11.5471C16.0413 11.2647 15.7235 11.2529 15.506 11.0293C15.3882 10.9176 15.3001 10.7941 15.2353 10.6529C15.0235 10.2235 14.8235 9.77058 14.6295 9.30583C14.4882 8.97644 14.1706 8.51762 13.7707 8.48232C13.6018 8.47029 13.4344 8.44273 13.2706 8.39996C13.1608 8.37151 13.0635 8.30736 12.9942 8.21761L12.8589 8.02938C12.7824 7.93526 12.8118 7.8882 12.9353 7.89997C13.8353 7.9882 14.7 8.18821 15.5295 8.50584C15.5883 8.52349 15.6295 8.56467 15.6589 8.61174C15.8648 8.95291 16.0941 9.27646 16.3471 9.58226C16.5059 9.77648 16.6235 9.99993 16.7001 10.2529C16.7177 10.3177 16.7001 10.347 16.6294 10.3293C16.5254 10.3057 16.4285 10.2573 16.3471 10.1882C16.3059 10.1587 16.2472 10.1764 16.2295 10.2235H16.2354Z" fill="white"/>
<path d="M15.906 15.3176C16.0825 15.7294 16.0237 16.1411 15.7531 16.5411C15.5884 16.7765 15.5295 16.7588 15.5884 16.4942C15.7707 15.6647 14.8236 14.9647 14.9531 14.0941C15.1116 13.3405 15.4462 12.635 15.9295 12.0353C15.9648 11.9882 15.9943 11.9882 16.0237 12.0353C16.3765 12.6236 16.4825 13.1942 16.3472 13.7411C16.1707 14.4765 17.1943 14.6647 16.4061 15.5176C16.359 15.5647 16.3178 15.5647 16.2766 15.5176L16.0296 15.2294C15.9825 15.1823 15.8824 15.2646 15.906 15.3176ZM8.00014 14.8471C7.94776 14.8591 7.89905 14.8835 7.8581 14.9183C7.81715 14.9532 7.78517 14.9973 7.76485 15.0471C7.72368 15.1353 7.66485 15.1411 7.5825 15.0706C7.25896 14.8 7.18838 14.3999 7.47662 14.1C7.55897 14.0118 7.62367 13.9235 7.66485 13.8294C7.68508 13.7893 7.68929 13.743 7.67661 13.6999C7.59477 13.4131 7.57979 13.1111 7.63281 12.8174C7.68584 12.5238 7.80545 12.2461 7.9825 12.0059C8.00144 11.9987 8.02238 11.9987 8.04131 12.0059C8.05266 12.0087 8.0629 12.0149 8.07073 12.0235C8.61191 12.6705 9.34128 13.7235 8.94719 14.4588C8.65308 15.0059 8.3472 15.4293 8.39426 16.047C8.40014 16.1352 8.37072 16.1411 8.30015 16.0647C7.96485 15.6941 7.88838 15.3001 8.08249 14.9059C8.10014 14.8706 8.0472 14.8353 8.00014 14.8471ZM11.2354 14.3C10.3178 14.5705 9.58834 15.1235 9.70597 16.1059C9.75304 16.4706 10.0237 16.7412 10.2001 17.0588C10.2288 17.1137 10.2452 17.1744 10.2483 17.2363C10.2513 17.2982 10.241 17.3601 10.2178 17.4176C10.0884 17.747 9.97663 18.0823 10.2178 18.4059C10.2531 18.4647 10.2413 18.4823 10.1707 18.4647C10.0925 18.4484 10.0186 18.416 9.95371 18.3693C9.88893 18.3228 9.83457 18.2631 9.79422 18.1941C9.77981 18.1706 9.77075 18.1441 9.76773 18.1167C9.76471 18.0892 9.76773 18.0615 9.77665 18.0353C9.88248 17.7 9.64132 17.4824 9.43544 17.2411C8.8119 16.4942 9.07072 15.3235 9.43544 14.5235C9.67659 13.9941 10.306 13.6412 10.7119 13.2058C10.8177 13.0882 11.0178 13.3471 11.106 13.3882C11.459 13.5764 11.7648 13.6647 12.0177 13.6588C12.4199 13.6353 12.8035 13.4827 13.1119 13.2235C13.159 13.1764 13.206 13.1764 13.2589 13.2235C13.506 13.4412 13.7767 13.6765 14.0649 13.9117C14.7119 14.4411 14.8884 15.2882 14.9354 16.0588C14.9765 16.6353 14.7649 17.0529 14.3766 17.4706C14.2001 17.6588 14.1589 17.8588 14.2354 18.0705C14.2428 18.0874 14.2461 18.1058 14.2451 18.1242C14.244 18.1426 14.2388 18.1604 14.2296 18.1765C14.1909 18.2457 14.1387 18.3063 14.076 18.3549C14.0133 18.4034 13.9415 18.4388 13.8648 18.4588C13.7883 18.4823 13.7708 18.4588 13.8178 18.4C14.2531 17.8 13.6061 17.2941 14.0943 16.6412C14.606 15.9589 14.3472 15.1176 13.6589 14.6765C13.3885 14.5122 13.0951 14.3892 12.7884 14.3118C12.7228 14.2926 12.6527 14.2947 12.5883 14.3176C12.2073 14.4533 11.7903 14.4492 11.4119 14.3059C11.3548 14.2857 11.2925 14.2857 11.2354 14.3059V14.3Z" fill="white"/>
<path d="M11.9594 15.0474C12.3887 15.0474 12.7358 14.9826 12.7358 14.8944C12.7358 14.812 12.3828 14.7415 11.9594 14.7415C11.5299 14.7415 11.177 14.812 11.177 14.8944C11.177 14.9767 11.5299 15.0474 11.9594 15.0474Z" fill="white"/>
<path d="M12.2064 17.7468C12.2298 17.9821 12.1416 18.188 11.9298 18.3822C11.8592 18.4527 11.8592 18.7822 11.7534 18.7469C11.3191 18.6034 10.938 18.3329 10.6592 17.9704C10.6417 17.9472 10.6301 17.9199 10.626 17.8911C10.6219 17.8623 10.6253 17.8329 10.6358 17.8057C10.8298 17.3351 10.6945 16.888 10.4358 16.494C10.1534 16.0645 10.171 15.635 10.4829 15.2116C10.5828 15.0763 10.7181 14.9939 10.8828 14.9645C10.924 14.9586 10.9593 14.9646 10.9945 14.988C11.6711 15.4292 12.324 15.4234 12.9357 14.9705C12.9547 14.9558 12.9769 14.946 13.0005 14.9419C13.024 14.9378 13.0483 14.9394 13.0711 14.9468C13.4476 15.0528 13.6769 15.3174 13.7534 15.7469C13.8122 16.0939 13.6357 16.3527 13.471 16.6292C13.224 17.0705 13.224 17.588 13.4887 17.9998C13.5416 18.0881 13.524 18.1586 13.4417 18.2175C13.2829 18.3351 13.1004 18.3939 12.9005 18.4057C12.8416 18.4057 12.7945 18.4293 12.7476 18.4762C12.6122 18.6056 12.5299 18.7704 12.4946 18.9528C12.4769 19.0704 12.4239 19.0939 12.3416 18.9998C12.2239 18.8763 12.1416 18.7528 12.1946 18.5704L12.3886 17.9234C12.4122 17.8351 12.3181 17.7704 12.271 17.7175C12.218 17.6704 12.2005 17.6822 12.2123 17.7468H12.2064Z" fill="white"/>
</svg>

<svg xmlns="http://www.w3.org/2000/svg" width="24" height="24" fill="none" viewBox="0 0 24 24">
    <path fill="#fff" fill-rule="evenodd" d="M12 22a10 10 0 1 0 0-20 10 10 0 0 0 0 20m0-.4a9.6 9.6 0 1 0 0-19.2 9.6 9.6 0 0 0 0 19.2" clip-rule="evenodd"/>
    <path fill="#fff" d="m10.918 5.788 1.029-1.406c.035-.041.065-.041.1 0l1.012 1.412c-.612-.03-.77.706-.188.806a7.6 7.6 0 0 1 1.517.4c.247.094.57-.077.5-.383-.047-.205-.194-.352-.441-.429q-.123-.043 0-.076l1.6-.4q.105-.034.053.064l-1.135 2.03c-.03.053-.071.064-.124.053-1.87-.565-3.765-.56-5.676.017-.047.018-.089 0-.112-.047L7.9 5.77c-.035-.058-.018-.076.041-.058l1.482.37c.147.035.16.088.018.165-.259.141-.506.33-.27.659a.35.35 0 0 0 .411.117 6.2 6.2 0 0 1 1.57-.423c.577-.077.371-.865-.234-.812m-3.306 4.4-.118.059a.2.2 0 0 1-.094.041c-.07 0-.094-.023-.077-.082.16-.542.56-1.012.894-1.47a.87.87 0 0 1 .412-.29c.865-.3 1.67-.481 2.43-.534.023 0 .04.023.03.04a.88.88 0 0 1-.46.413c-.647.247-1.2.352-1.494 1.058-.253.589-.447 1.547-1.076 1.836-.453.206-.553.782-.612 1.217-.012.118-.035.118-.059 0a3.1 3.1 0 0 1-.059-1.2c.047-.364.265-.664.365-1.017.024-.077 0-.1-.082-.07"/>
    <path fill="#fff" d="M12.454 11.635q-.001.378.146.024a1.7 1.7 0 0 0 .118-.412c0-.03.012-.059.041-.076.024-.024.06-.03.089-.036q.263-.002.535.042.661.116 1.147-.236.089-.05 0-.112c-.447-.34-1.118-.158-1.641-.047-.094.018-.106 0-.035-.064.411-.371.94-.512 1.564-.43l.165.006q.17 0 .223.141c.124.324.295.959.689 1.077.035.011.047.047.023.07a5.5 5.5 0 0 0-.859 1.388c-.07.165-.294.242-.47.177l-.965-.388q-.08-.037-.088-.1a.5.5 0 0 0-.259-.341.2.2 0 0 0-.182-.018.15.15 0 0 0-.089.076c-.035.089 0 .118.095.1q.116-.026.205.124c.03.059.024.118-.023.165a.2.2 0 0 1-.053.035l-.653.259a.4.4 0 0 1-.265.018 4.6 4.6 0 0 1-.764-.295.156.156 0 0 1 .04-.294.3.3 0 0 1 .142-.006c.07.012.076-.059.07-.1-.011-.053-.047-.082-.1-.088-.3-.047-.388.159-.452.365a.17.17 0 0 1-.106.106l-.906.364q-.37.15-.518-.176a8 8 0 0 0-.83-1.377c-.029-.035-.023-.058.03-.082.424-.153.53-.753.688-1.106a.13.13 0 0 1 .112-.076q1.034-.157 1.636.258c.276.195.246.248-.1.165-.448-.106-1-.2-1.4.083a.083.083 0 0 0 0 .141q.617.378 1.482.164.266-.06.347.177l.135.494c.018.059.118.088.118.012l-.018-1.347c0-.053-.03-.088-.082-.118a7.1 7.1 0 0 0-1.918-.506c-.059-.006-.07-.035-.053-.082q.355-.757 1.018-.8c.635-.035.959-.535 1.182-1 .024-.047.059-.065.118-.065l.4-.006q.046-.002.082.024c.024.012.041.03.06.059.205.435.582.982 1.181.988.483.006.836.441 1.03.812.023.035.006.059-.035.059a7.2 7.2 0 0 0-1.965.54.11.11 0 0 0-.077.1v1.171z"/>
    <path fill="#fff" d="M16.235 10.224a.25.25 0 0 0 .018.205c.376.647.47 1.324.265 2.041-.041.142-.065.142-.077-.011a2.3 2.3 0 0 0-.253-.912c-.147-.282-.464-.294-.682-.518a1.2 1.2 0 0 1-.27-.376c-.213-.43-.413-.882-.607-1.347-.14-.33-.458-.788-.858-.824a3 3 0 0 1-.5-.082.5.5 0 0 1-.277-.182l-.135-.189c-.077-.094-.047-.14.076-.129q1.35.13 2.595.606c.058.017.1.059.129.106q.309.51.688.97.238.292.353.67c.018.066 0 .095-.07.077a.66.66 0 0 1-.283-.14.078.078 0 0 0-.117.034z"/>
    <path fill="#fff" d="M15.906 15.318c.176.411.118.823-.153 1.223-.165.235-.223.218-.165-.047.183-.83-.764-1.53-.635-2.4a4.9 4.9 0 0 1 .977-2.059q.05-.07.094 0 .527.885.323 1.706c-.176.736.847.924.06 1.777q-.071.07-.13 0l-.247-.289c-.048-.047-.148.036-.124.089M8 14.848a.34.34 0 0 0-.235.2q-.06.13-.183.023c-.323-.271-.394-.671-.105-.971a1 1 0 0 0 .188-.27.18.18 0 0 0 .012-.13 1.95 1.95 0 0 1 .306-1.694.1.1 0 0 1 .058 0 .06.06 0 0 1 .03.018c.54.647 1.27 1.7.876 2.435-.294.547-.6.97-.553 1.588q.01.132-.094.018c-.335-.37-.412-.765-.218-1.16.018-.034-.035-.07-.082-.058m3.235-.548c-.917.27-1.647.823-1.529 1.806.047.365.318.635.494.953a.43.43 0 0 1 .018.359c-.13.329-.241.664 0 .988.035.059.023.076-.047.059a.57.57 0 0 1-.377-.27.2.2 0 0 1-.017-.16c.105-.335-.136-.553-.342-.794-.623-.747-.364-1.918 0-2.717.242-.53.871-.883 1.277-1.318.106-.118.306.141.394.182q.531.281.912.27a1.87 1.87 0 0 0 1.094-.434q.069-.072.147 0c.247.217.518.453.806.688.647.53.823 1.376.87 2.147.041.576-.17.994-.558 1.412-.177.188-.218.388-.142.6a.12.12 0 0 1-.005.105.6.6 0 0 1-.365.283c-.077.023-.094 0-.047-.059.435-.6-.212-1.106.276-1.759.512-.682.253-1.523-.435-1.964a3.2 3.2 0 0 0-.87-.365.33.33 0 0 0-.2.006 1.7 1.7 0 0 1-1.177-.012.27.27 0 0 0-.177 0z"/>
    <path fill="#fff" d="M11.96 15.047c.429 0 .776-.064.776-.153 0-.082-.353-.152-.777-.152-.43 0-.782.07-.782.152 0 .083.353.153.782.153"/>
    <path fill="#fff" d="M12.206 17.747c.024.235-.064.441-.276.635-.07.07-.07.4-.177.365a2.3 2.3 0 0 1-1.094-.777.17.17 0 0 1-.023-.164c.194-.47.059-.918-.2-1.312q-.423-.646.047-1.282a.62.62 0 0 1 .4-.248.15.15 0 0 1 .112.024c.676.441 1.329.435 1.94-.018a.15.15 0 0 1 .136-.023q.567.157.682.8c.06.347-.117.606-.282.882-.247.441-.247.959.018 1.37.053.09.035.16-.047.219a1 1 0 0 1-.542.188.2.2 0 0 0-.152.07.9.9 0 0 0-.253.477c-.018.117-.071.14-.153.047-.118-.124-.2-.247-.147-.43l.194-.647c.023-.088-.07-.153-.118-.205-.053-.048-.07-.036-.059.029z"/>
</svg>
